X: 4
T: Gneevgullia
R: reel
M: 4/4
L: 1/8
K: Edor
~E3 F G2 EF | GBAG FDDF | ~E3 F G3 A | (B/c/d) ed Bd .e2 |~E3 F G2 EF | GBAG FDDF | ~E3 F G3 A | (B/c/d) ed BE ~E2 ||e3 d Bdef | geag fd d2 | (e/f/g) ed Bdeg | fedB e3 d |(B/c/d) ed Bdef | geag fd d2 | ~g3 e dged | B2 Ad BEED ||


Tune 876	Setting 29653

